X: 21918
T: Kitchen Girl, The
R: reel
M: 4/4
K: Amixolydian
a2a(a g2)e2-|e2e(d c2)cd|e3(f gf)g(a|ba)g(f ef)ge|
a/a/a(a2 g2)(g2|e)fe(d c2)c(d|cB)A(c BA)GG|A3A- A2AA:|
K: Am
Az cz (B4|A)BA(G E2)A2-|A2(B2 c2)dd|e3(f ed)c(B|
A2)A(A B2)B(B|A)BA(G E2)A(B|cB)A(c BA)GG|A3A- A2EA|
.A.A.A.c .c.B.B.B|.A.B.A.G .E.E.E.A|.A.A.B.B .c.c.d.d|.e.e.e.f .e.d.c.B|
.A.A.A.A .B.B.B.B|.A.B.A(G E) zA(B|cB)A(c BA)GG|A4 A2AA||

